**harmony	**harte	**kern	**silbe	**rhyme	**timestamp	**phrase	**leadinstrument
*M4/4	*M4/4	*ICvox	*	*	*	*	*
*	*	*VRlead	*	*	*	*	*
*	*	*Hstimme	*	*	*	*	*
*d:	*d:	*d:	*	*	*d:	*d:	*d:
*	*	*M4/4	*	*	*	*	*
*	*	*clefF4	*	*	*	*	*
1r;	1r	r;	.	.	0	.	r
1r;	1r	r;	.	.	0.045	.	r
=1	=1	=1	=1	=1	=1	=1	=1
*>Letter>A	*>Letter>A	*>Letter>A	*>Letter>A	*>Letter>A	*>Letter>A	*>Letter>A	*>Letter>A
*>Label>Verse	*>Label>Verse	*>Label>Verse	*>Label>Verse	*>Label>Verse	*>Label>Verse	*>Label>Verse	*>Label>Verse
1Dm	D:min	8D	We	A	1.495	newline	voice
.	.	4E	don't	.	.	.	.
.	.	4F	need	(A	.	.	.
.	.	4.E	no	a)	.	.	.
=2	=2	=2	=2	=2	=2	=2	=2
1Dm	D:min	4D	ed-	.	3.792	.	voice
.	.	8E	-u-	.	.	.	.
.	.	4F	-ca-	.	.	.	.
.	.	4.E	-tion	.	.	.	.
=3	=3	=3	=3	=3	=3	=3	=3
1Dm	D:min	1r	.	.	6.089	.	voice
=4	=4	=4	=4	=4	=4	=4	=4
1Dm	D:min	1r	.	.	8.385	.	voice
=5	=5	=5	=5	=5	=5	=5	=5
1Dm	D:min	8D	We	A	10.682	newline	voice
.	.	4E	don't	.	.	.	.
.	.	4F	need	(A	.	.	.
.	.	4.E	no	a)	.	.	.
=6	=6	=6	=6	=6	=6	=6	=6
1Dm	D:min	4D	thought	.	12.99	.	voice
.	.	8E	con-	.	.	.	.
.	.	4.F	-trol	B	.	.	.
.	.	4r	.	.	.	.	.
=7	=7	=7	=7	=7	=7	=7	=7
1Dm	D:min	1r	.	.	15.298	.	voice
=8	=8	=8	=8	=8	=8	=8	=8
1Dm	D:min	2r	.	.	17.606	.	voice
.	.	4.r	.	.	.	.	.
.	.	8AA	No	.	.	.	.
=9	=9	=9	=9	=9	=9	=9	=9
1Dm	D:min	4D	dark	.	19.915	newline	voice
.	.	8E	sar-	.	.	.	.
.	.	4F	-ca-	(C	.	.	.
.	.	4.E	-sm	c)	.	.	.
=10	=10	=10	=10	=10	=10	=10	=10
1Dm	D:min	4D	in	.	22.214	.	voice
.	.	8E	the	.	.	.	.
.	.	4F	class	(C	.	.	.
.	.	4.E	room	C)	.	.	.
=11	=11	=11	=11	=11	=11	=11	=11
1Dm	D:min	1r	.	.	24.513	.	voice
=12	=12	=12	=12	=12	=12	=12	=12
1Dm	D:min	1r	.	.	26.812	.	voice
=13	=13	=13	=13	=13	=13	=13	=13
1Dm	D:min	4D	Tea-	(A	29.112	newline	voice
.	.	8E	-cher	a)	.	.	.
.	.	4F	leave	A	.	.	.
.	.	4.E	them	.	.	.	.
=14	=14	=14	=14	=14	=14	=14	=14
1Dm	D:min	4D	kids	.	31.424	.	voice
.	.	8E	a-	.	.	.	.
.	.	4.F	-lone	B	.	.	.
.	.	4r	.	.	.	.	.
=15	=15	=15	=15	=15	=15	=15	=15
1GM	G:maj	1r	.	.	33.736	.	voice
=16	=16	=16	=16	=16	=16	=16	=16
1GM	G:maj	1r	.	.	36.048	.	voice
=17	=17	=17	=17	=17	=17	=17	=17
1GM	G:maj	2r	.	.	38.361	newline	voice
.	.	4A	Hey	.	.	.	.
.	.	4r	.	.	.	.	.
=18	=18	=18	=18	=18	=18	=18	=18
1GM	G:maj	16F	tea-	(A	40.681	.	voice
.	.	16F	-cher	a)	.	.	.
.	.	8r	.	.	.	.	.
.	.	4r	.	.	.	.	.
.	.	8A	leave	A	.	.	.
.	.	8G	them	.	.	.	.
.	.	8F	kids	.	.	.	.
.	.	16G	a-	.	.	.	.
.	.	[16F	-lone	B	.	.	.
=19	=19	=19	=19	=19	=19	=19	=19
1Dm	D:min	4F]	_	.	43.001	.	voice
.	.	4r	.	.	.	.	.
.	.	2r	.	.	.	.	.
=20	=20	=20	=20	=20	=20	=20	=20
1Dm	D:min	1r	.	.	45.321	.	voice
=21	=21	=21	=21	=21	=21	=21	=21
*>Letter>B	*>Letter>B	*>Letter>B	*>Letter>B	*>Letter>B	*>Letter>B	*>Letter>B	*>Letter>B
*>Label>Chorus	*>Label>Chorus	*>Label>Chorus	*>Label>Chorus	*>Label>Chorus	*>Label>Chorus	*>Label>Chorus	*>Label>Chorus
1FM	F:maj	4r	.	.	47.641	newline	voice
.	.	8F	All	D	.	.	.
.	.	16F	in	.	.	.	.
.	.	8.F	all	D	.	.	.
.	.	8F	it's	.	.	.	.
.	.	8F	just	.	.	.	.
.	.	8F	a-	.	.	.	.
=22	=22	=22	=22	=22	=22	=22	=22
1CM	C:maj	4r	.	.	49.959	.	voice
.	.	16E	-no-	.	.	.	.
.	.	8.E	-ther	.	.	.	.
.	.	6E	brick	.	.	.	.
.	.	6D	in	.	.	.	.
.	.	6C	the	.	.	.	.
=23	=23	=23	=23	=23	=23	=23	=23
1Dm	D:min	4D	wall	D	52.277	.	voice
.	.	4r	.	.	.	.	.
.	.	2r	.	.	.	.	.
=24	=24	=24	=24	=24	=24	=24	=24
1Dm	D:min	1r	.	.	54.595	.	voice
=25	=25	=25	=25	=25	=25	=25	=25
1FM	F:maj	4r	.	.	56.913	newline	voice
.	.	8F	All	D	.	.	.
.	.	16F	in	.	.	.	.
.	.	8.F	all	D	.	.	.
.	.	8F	you're	.	.	.	.
.	.	8F	just	.	.	.	.
.	.	8F	a	.	.	.	.
=26	=26	=26	=26	=26	=26	=26	=26
1CM	C:maj	4r	.	.	59.241	.	voice
.	.	16E	no-	.	.	.	.
.	.	8.E	-ther	.	.	.	.
.	.	6E	brick	.	.	.	.
.	.	6D	in	.	.	.	.
.	.	6C	the	.	.	.	.
=27	=27	=27	=27	=27	=27	=27	=27
1Dm	D:min	4D	wall	D	61.57	.	voice
.	.	4r	.	.	.	.	.
.	.	2r	.	.	.	.	.
=28	=28	=28	=28	=28	=28	=28	=28
1N	N	1r	.	.	63.898	.	voice
=29	=29	=29	=29	=29	=29	=29	=29
*>Letter>A	*>Letter>A	*>Letter>A	*>Letter>A	*>Letter>A	*>Letter>A	*>Letter>A	*>Letter>A
*>Label>Verse	*>Label>Verse	*>Label>Verse	*>Label>Verse	*>Label>Verse	*>Label>Verse	*>Label>Verse	*>Label>Verse
1N	N	8d	We	A	66.227	newline	voice
.	.	4e	don't	.	.	.	.
.	.	4f	need	(A	.	.	.
.	.	4.e	no	a)	.	.	.
=30	=30	=30	=30	=30	=30	=30	=30
1N	N	4d	ed-	.	68.534	.	voice
.	.	8e	-u-	.	.	.	.
.	.	4f	-ca-	.	.	.	.
.	.	4.e	-tion	.	.	.	.
=31	=31	=31	=31	=31	=31	=31	=31
1Dm	D:min	1r	.	.	70.841	.	voice
=32	=32	=32	=32	=32	=32	=32	=32
1Dm	D:min	1r	.	.	73.148	.	voice
=33	=33	=33	=33	=33	=33	=33	=33
1Dm	D:min	8d	We	A	75.455	newline	voice
.	.	4e	don't	.	.	.	.
.	.	4f	need	(A	.	.	.
.	.	4.e	no	a)	.	.	.
=34	=34	=34	=34	=34	=34	=34	=34
1Dm	D:min	4d	thought	.	77.762	.	voice
.	.	8e	con-	.	.	.	.
.	.	4.f	-trol	B	.	.	.
.	.	4r	.	.	.	.	.
=35	=35	=35	=35	=35	=35	=35	=35
1Dm	D:min	1r	.	.	80.069	.	voice
=36	=36	=36	=36	=36	=36	=36	=36
1Dm	D:min	2r	.	.	82.375	.	voice
.	.	4.r	.	.	.	.	.
.	.	8A	No	.	.	.	.
=37	=37	=37	=37	=37	=37	=37	=37
1Dm	D:min	4d	dark	.	84.682	newline	voice
.	.	8e	sar-	.	.	.	.
.	.	4f	-ca-	(C	.	.	.
.	.	4.e	-sm	c)	.	.	.
=38	=38	=38	=38	=38	=38	=38	=38
1Dm	D:min	4d	in	.	86.991	.	voice
.	.	8e	the	.	.	.	.
.	.	4f	class	(C	.	.	.
.	.	4.e	room	c)	.	.	.
=39	=39	=39	=39	=39	=39	=39	=39
1Dm	D:min	1r	.	.	89.3	.	voice
=40	=40	=40	=40	=40	=40	=40	=40
1Dm	D:min	1r	.	.	91.61	.	voice
=41	=41	=41	=41	=41	=41	=41	=41
1Dm	D:min	8d	Tea-	(A	93.919	newline	voice
.	.	4e	-chers	a)	.	.	.
.	.	4f	leave	A	.	.	.
.	.	4.e	them	.	.	.	.
=42	=42	=42	=42	=42	=42	=42	=42
1Dm	D:min	4d	kids	.	96.23	.	voice
.	.	8e	a-	.	.	.	.
.	.	4.f	-lone	B	.	.	.
.	.	4r	.	.	.	.	.
=43	=43	=43	=43	=43	=43	=43	=43
1GM	G:maj	1r	.	.	98.541	.	voice
=44	=44	=44	=44	=44	=44	=44	=44
1GM	G:maj	1r	.	.	100.853	.	voice
=45	=45	=45	=45	=45	=45	=45	=45
1GM	G:maj	2r	.	.	103.164	newline	voice
.	.	4a	Hey	.	.	.	.
.	.	4r	.	.	.	.	.
=46	=46	=46	=46	=46	=46	=46	=46
1GM	G:maj	8a	tea-	(A	105.468	.	voice
.	.	8a	-cher	a)	.	.	.
.	.	4r	.	.	.	.	.
.	.	8a	leave	A	.	.	.
.	.	8g	those	.	.	.	.
.	.	8f	kids	.	.	.	.
.	.	16g	a-	.	.	.	.
.	.	[16f	-lone	B	.	.	.
=47	=47	=47	=47	=47	=47	=47	=47
1Dm	D:min	4f]	_	.	107.773	.	voice
.	.	4r	.	.	.	.	.
.	.	2r	.	.	.	.	.
=48	=48	=48	=48	=48	=48	=48	=48
1Dm	D:min	1r	.	.	110.077	.	voice
=49	=49	=49	=49	=49	=49	=49	=49
*>Letter>B	*>Letter>B	*>Letter>B	*>Letter>B	*>Letter>B	*>Letter>B	*>Letter>B	*>Letter>B
*>Label>Chorus	*>Label>Chorus	*>Label>Chorus	*>Label>Chorus	*>Label>Chorus	*>Label>Chorus	*>Label>Chorus	*>Label>Chorus
1FM	F:maj	4r	.	.	112.382	newline	voice
.	.	8f	All	D	.	.	.
.	.	16f	in	.	.	.	.
.	.	8.f	all	D	.	.	.
.	.	8f	it's	.	.	.	.
.	.	8f	just	.	.	.	.
.	.	8f	a-	.	.	.	.
=50	=50	=50	=50	=50	=50	=50	=50
1CM	C:maj	4r	.	.	114.717	.	voice
.	.	16e	-no-	.	.	.	.
.	.	8.e	-ther	.	.	.	.
.	.	6e	brick	.	.	.	.
.	.	6d	in	.	.	.	.
.	.	6c	the	.	.	.	.
=51	=51	=51	=51	=51	=51	=51	=51
1Dm	D:min	4d	wall	D	117.052	.	voice
.	.	4r	.	.	.	.	.
.	.	2r	.	.	.	.	.
=52	=52	=52	=52	=52	=52	=52	=52
1Dm	D:min	1r	.	.	119.388	.	voice
=53	=53	=53	=53	=53	=53	=53	=53
1FM	F:maj	4r	.	.	121.723	newline	voice
.	.	8f	All	D	.	.	.
.	.	16f	in	.	.	.	.
.	.	8.f	all	D	.	.	.
.	.	8f	you're	.	.	.	.
.	.	8f	just	.	.	.	.
.	.	8f	a	.	.	.	.
=54	=54	=54	=54	=54	=54	=54	=54
1CM	C:maj	4r	.	.	124.067	.	voice
.	.	16e	no-	.	.	.	.
.	.	8.e	-ther	.	.	.	.
.	.	6e	brick	.	.	.	.
.	.	6d	in	.	.	.	.
.	.	6c	the	.	.	.	.
=55	=55	=55	=55	=55	=55	=55	=55
1Dm	D:min	4d	wall	D	126.412	.	voice
.	.	4r	.	.	.	.	.
.	.	2r	.	.	.	.	.
=56	=56	=56	=56	=56	=56	=56	=56
1Dm	D:min	1r	.	.	128.756	.	voice
=57	=57	=57	=57	=57	=57	=57	=57
*>Letter>C	*>Letter>C	*>Letter>C	*>Letter>C	*>Letter>C	*>Letter>C	*>Letter>C	*>Letter>C
*>Label>Solo	*>Label>Solo	*>Label>Solo	*>Label>Solo	*>Label>Solo	*>Label>Solo	*>Label>Solo	*>Label>Solo
1Dm	D:min	1r	.	.	131.101	newline	guitar
=58	=58	=58	=58	=58	=58	=58	=58
1Dm	D:min	1r	.	.	133.425	.	guitar
=59	=59	=59	=59	=59	=59	=59	=59
1Dm	D:min	1r	.	.	135.748	.	guitar
=60	=60	=60	=60	=60	=60	=60	=60
1Dm	D:min	1r	.	.	138.072	.	guitar
=61	=61	=61	=61	=61	=61	=61	=61
1Dm	D:min	1r	.	.	140.395	newline	guitar
=62	=62	=62	=62	=62	=62	=62	=62
1Dm	D:min	1r	.	.	142.706	.	guitar
=63	=63	=63	=63	=63	=63	=63	=63
1Dm	D:min	1r	.	.	145.016	.	guitar
=64	=64	=64	=64	=64	=64	=64	=64
1Dm	D:min	1r	.	.	147.327	.	guitar
=65	=65	=65	=65	=65	=65	=65	=65
1CM	C:maj/2	1r	.	.	149.637	newline	guitar
=66	=66	=66	=66	=66	=66	=66	=66
1CM	C:maj/2	1r	.	.	151.979	.	guitar
=67	=67	=67	=67	=67	=67	=67	=67
1Dm	D:min	1r	.	.	154.321	.	guitar
=68	=68	=68	=68	=68	=68	=68	=68
1Dm	D:min	1r	.	.	156.662	.	guitar
=69	=69	=69	=69	=69	=69	=69	=69
1CM	C:maj/2	1r	.	.	159.004	newline	guitar
=70	=70	=70	=70	=70	=70	=70	=70
1CM	C:maj/2	1r	.	.	161.328	.	guitar
=71	=71	=71	=71	=71	=71	=71	=71
1Dm	D:min	1r	.	.	163.653	newline	guitar
=72	=72	=72	=72	=72	=72	=72	=72
1Dm	D:min	1r	.	.	165.974	.	guitar
=73	=73	=73	=73	=73	=73	=73	=73
1GMm	G:7/5	1r	.	.	168.295	.	guitar
=74	=74	=74	=74	=74	=74	=74	=74
1GMm	G:7/5	1r	.	.	170.616	.	guitar
=75	=75	=75	=75	=75	=75	=75	=75
1Dm	D:min	1r	.	.	172.937	newline	guitar
=76	=76	=76	=76	=76	=76	=76	=76
1Dm	D:min	1r	.	.	175.259	.	guitar
=77	=77	=77	=77	=77	=77	=77	=77
1GMm	G:7/5	1r	.	.	177.581	.	guitar
=78	=78	=78	=78	=78	=78	=78	=78
1GMm	G:7/5	1r	.	.	179.904	.	guitar
=79	=79	=79	=79	=79	=79	=79	=79
1Dm	D:min	1r	.	.	182.226	newline	guitar
=80	=80	=80	=80	=80	=80	=80	=80
1Dm	D:min	1r	.	.	184.569	.	guitar
=81	=81	=81	=81	=81	=81	=81	=81
1Dm	D:sus4(b7,9)	1r	.	.	186.911	.	guitar
=82	=82	=82	=82	=82	=82	=82	=82
1Dm	D:sus4(b7,9)	1r	.	.	189.254	.	guitar
=83	=83	=83	=83	=83	=83	=83	=83
1B-M	B-:maj/3	1r	.	.	191.596	newline	guitar
=84	=84	=84	=84	=84	=84	=84	=84
1B-M	B-:maj/3	1r	.	.	193.927	.	guitar
=85	=85	=85	=85	=85	=85	=85	=85
1Dm	D:sus4(b7,9)	1r	.	.	196.257	.	guitar
=86	=86	=86	=86	=86	=86	=86	=86
1Dm	D:sus4(b7,9)	1r	.	.	198.587	.	guitar
=87	=87	=87	=87	=87	=87	=87	=87
*>Label>>Fadeout	*>Label>>Fadeout	*>Label>>Fadeout	*>Label>>Fadeout	*>Label>>Fadeout	*>Label>>Fadeout	*>Label>>Fadeout	*>Label>>Fadeout
1Dm	D:1	1r	.	.	200.917	newline	drums
=88	=88	=88	=88	=88	=88	=88	=88
1N	N	1r	.	.	203.224	.	drums
=89	=89	=89	=89	=89	=89	=89	=89
1N	N	1r	.	.	205.53	.	drums
=90	=90	=90	=90	=90	=90	=90	=90
1N	N	1r	.	.	207.837	.	drums
=91	=91	=91	=91	=91	=91	=91	=91
1N	N	1r	.	.	210.144	newline	drums
=92	=92	=92	=92	=92	=92	=92	=92
1N	N	1r	.	.	212.476	.	drums
=93	=93	=93	=93	=93	=93	=93	=93
1N	N	1r	.	.	214.808	.	drums
=94	=94	=94	=94	=94	=94	=94	=94
1N	N	1r	.	.	217.14	.	drums
=95	=95	=95	=95	=95	=95	=95	=95
1N	N	1r	.	.	219.473	newline	drums
=96	=96	=96	=96	=96	=96	=96	=96
1N	N	1r	.	.	221.782	.	drums
1r;	1r	r;	.	.	224.092	.	r
1r;	1r	r;	.	.	239.961	.	r
*-	*-	*-	*-	*-	*-	*-	*-
!!!BillboardChartDate: 1980/07/05
!!!BillboardPeak: 1
!!!BillboardWeeksOnChart: 25
!!!COC: Pink Floyd
!!!ENC: Nathaniel Condit-Schultz
!!!EST: Awating manual error checking and editing.
!!!OTL: Another Brick In The Wall (Part II)
!!!RDF**chordsym: original McGill chord annotation + (implied pitch class set, with bass pitch in first position)
!!!RDF**harmony: **recip + pitch class of root + harmonic quality
!!!RDF**leadinstrument: original McGill primary instrumentation annotation
!!!RDF**phrase: newline = linebreak in original McGill transcription
!!!RDF**timestamp: McGill audio timestamp in seconds
!!!RDT: 2017/01/12/
!!!SampleActualRank: 94
!!!SampleID#: 1052
!!!SampleTargetRank: 93
!!!MBID: 10acbb87-d5f1-432e-bdb4-db0d93d223b0
